svgs/light/claw-marks.svg

<svg xmlns="http://www.w3.org/2000/svg" viewBox="0 0 576 512"><!--! Font Awesome Pro 6.3.0 by @fontawesome - https://fontawesome.com License - https://fontawesome.com/license (Commercial License) Copyright 2023 Fonticons, Inc. --><path d="M36.69 4.686C42.93-1.562 53.06-1.562 59.31 4.686L170.9 116.3C184.4 129.8 192 148.1 192 167.2V192H216.8C235.9 192 254.2 199.6 267.7 213.1L362.9 308.3C376.4 321.8 384 340.1 384 359.2V384H408.8C427.9 384 446.2 391.6 459.7 405.1L539.3 484.7C545.6 490.9 545.6 501.1 539.3 507.3C533.1 513.6 522.9 513.6 516.7 507.3L437.1 427.7C429.6 420.2 419.4 416 408.8 416H368C359.2 416 352 408.8 352 400V359.2C352 348.6 347.8 338.4 340.3 330.9L245.1 235.7C237.6 228.2 227.4 224 216.8 224H176C167.2 224 160 216.8 160 208V167.2C160 156.6 155.8 146.4 148.3 138.9L36.69 27.31C30.44 21.07 30.44 10.93 36.69 4.686V4.686zM36.69 228.7C42.93 222.4 53.06 222.4 59.31 228.7L141.3 310.6C153.3 322.6 160 338.9 160 355.9V384H188.1C205.1 384 221.4 390.7 233.4 402.7L315.3 484.7C321.6 490.9 321.6 501.1 315.3 507.3C309.1 513.6 298.9 513.6 292.7 507.3L210.7 425.4C204.7 419.4 196.6 416 188.1 416H143.1C135.2 416 127.1 408.8 127.1 400V355.9C127.1 347.4 124.6 339.3 118.6 333.3L36.69 251.3C30.44 245.1 30.44 234.9 36.69 228.7V228.7zM301.3 22.63C313.3 34.63 320 50.91 320 67.88V95.1H348.1C365.1 95.1 381.4 102.7 393.4 114.7L429.3 150.6C441.3 162.6 448 178.9 448 195.9V224H476.1C493.1 224 509.4 230.7 521.4 242.7L539.3 260.7C545.6 266.9 545.6 277.1 539.3 283.3C533.1 289.6 522.9 289.6 516.7 283.3L498.7 265.4C492.7 259.4 484.6 256 476.1 256H432C423.2 256 416 248.8 416 240V195.9C416 187.4 412.6 179.3 406.6 173.3L370.7 137.4C364.7 131.4 356.6 128 348.1 128H304C295.2 128 287.1 120.8 287.1 112V67.88C287.1 59.4 284.6 51.26 278.6 45.25L260.7 27.31C254.4 21.07 254.4 10.93 260.7 4.686C266.9-1.562 277.1-1.562 283.3 4.686L301.3 22.63z"/></svg>

<svg xmlns="http://www.w3.org/2000/svg" viewBox="0 0 576 512"><!--! Font Awesome Pro 6.4.0 by @fontawesome - https://fontawesome.com License - https://fontawesome.com/license (Commercial License) Copyright 2023 Fonticons, Inc. --><path d="M36.7 4.7c6.2-6.2 16.4-6.2 22.6 0L170.9 116.3c13.5 13.5 21.1 31.8 21.1 50.9V192h24.8c19.1 0 37.4 7.6 50.9 21.1l95.2 95.2c13.5 13.5 21.1 31.8 21.1 50.9V384h24.8c19.1 0 37.4 7.6 50.9 21.1l79.6 79.6c6.2 6.2 6.2 16.4 0 22.6s-16.4 6.2-22.6 0l-79.6-79.6c-7.5-7.5-17.7-11.7-28.3-11.7H368c-8.8 0-16-7.2-16-16V359.2c0-10.6-4.2-20.8-11.7-28.3l-95.2-95.2c-7.5-7.5-17.7-11.7-28.3-11.7H176c-8.8 0-16-7.2-16-16V167.2c0-10.6-4.2-20.8-11.7-28.3L36.7 27.3c-6.2-6.2-6.2-16.4 0-22.6zm0 224c6.2-6.2 16.4-6.2 22.6 0l81.9 81.9c12 12 18.7 28.3 18.7 45.3V384h28.1c17 0 33.3 6.7 45.3 18.7l81.9 81.9c6.2 6.2 6.2 16.4 0 22.6s-16.4 6.2-22.6 0l-81.9-81.9c-6-6-14.1-9.4-22.6-9.4H144c-8.8 0-16-7.2-16-16V355.9c0-8.5-3.4-16.6-9.4-22.6L36.7 251.3c-6.2-6.2-6.2-16.4 0-22.6zM283.3 4.7l17.9 17.9c12 12 18.7 28.3 18.7 45.3V96h28.1c17 0 33.3 6.7 45.3 18.7l35.9 35.9c12 12 18.7 28.3 18.7 45.3V224h28.1c17 0 33.3 6.7 45.3 18.7l17.9 17.9c6.2 6.2 6.2 16.4 0 22.6s-16.4 6.2-22.6 0l-17.9-17.9c-6-6-14.1-9.4-22.6-9.4H432c-8.8 0-16-7.2-16-16V195.9c0-8.5-3.4-16.6-9.4-22.6l-35.9-35.9c-6-6-14.1-9.4-22.6-9.4H304c-8.8 0-16-7.2-16-16V67.9c0-8.5-3.4-16.6-9.4-22.6L260.7 27.3c-6.2-6.2-6.2-16.4 0-22.6s16.4-6.2 22.6 0z"/></svg>
